src/lib/packages/icons/src/assets/line/arrow-turn-left-down.svg

<svg width="24" height="24" viewBox="0 0 24 24" fill="none" xmlns="http://www.w3.org/2000/svg">
<path d="M18.75 3C18.75 3.414 18.414 3.75 18 3.75H13C11.76 3.75 10.75 4.759 10.75 6V19.189L13.47 16.469C13.763 16.176 14.238 16.176 14.531 16.469C14.824 16.762 14.824 17.237 14.531 17.53L10.531 21.53C10.462 21.599 10.3791 21.6539 10.2881 21.6919C10.1971 21.7299 10.099 21.75 10.001 21.75C9.903 21.75 9.80613 21.7299 9.71413 21.6919C9.62213 21.6539 9.53997 21.599 9.47097 21.53L5.47097 17.53C5.17797 17.237 5.17797 16.762 5.47097 16.469C5.76397 16.176 6.23901 16.176 6.53201 16.469L9.25198 19.189V6C9.25198 3.932 10.935 2.25 13.002 2.25H18.002C18.414 2.25 18.75 2.586 18.75 3Z" fill="currentColor"/>
</svg>

<svg xmlns="http://www.w3.org/2000/svg" width="24" height="24" fill="none"><path fill="currentColor" d="M18.75 3a.75.75 0 0 1-.75.75h-5A2.253 2.253 0 0 0 10.75 6v13.189l2.72-2.72a.75.75 0 1 1 1.061 1.061l-4 4a.755.755 0 0 1-.817.162.745.745 0 0 1-.243-.162l-4-4a.75.75 0 1 1 1.061-1.061l2.72 2.72V6a3.755 3.755 0 0 1 3.75-3.75h5a.75.75 0 0 1 .748.75Z"/></svg>
